X:65
T:Fairy Dance
T:Largo's Fairy Dance
R:reel
C:Nathaniel Gow, Scotland (1763-1831)
H:See also #649, #735
Z:id:hn-reel-65
M:C|
K:D
f2fd f2fd|f2fd cdec|f2fd gfed|1 cABc dcde:|2 cABc defg||
|:a2af b2ba|gfge a2ag|fefa gfed|1 cABc defg:|2 cABc dcde||
<end>
<start>
